X:7329
T:the Short Mesure Off My Lady Wynkfylds Rownde
O:England
D:The Bones of All Men (Phil Pickett, Richard Thompson, Fairport Convention etc)
M:4/4
%%ID:00000c2c
F: http://www.leeds.ac.uk/music/Info/RRTuneBk/gettune/00000c2c.abc
K:C
cB cd ec | B3A G2 | cB cd ec| f3e dc | BA GF ED | EF GA Bc \
|1 Bc de fd | e3d ef | e6 :|2 Bc dc dB | c3B cd | c6 |:\
BA Bc d2 | B6 | cB cd e2 | c6 | BA Bc d2 | B4 f2 | \
e3d c2 | B3A B2| c6 | c6:|


